app/webroot/img/edit.svg

<svg xmlns="http://www.w3.org/2000/svg" width="512" height="512" viewBox="0 0 512 512"><path d="M196.208 259.135l75.571 75.527-99.992 22.633 24.421-98.16zm265.501-111.915l-166.271 166.178-77.871-77.828 166.273-166.179 77.869 77.829zm-104.834 161.344v94.045h-266.583v-195.001h98.688l40.018-40h-178.706v275.001h346.583v-174.027l-40 39.982z"/></svg>

<?xml version="1.0" encoding="utf-8"?>


<!-- The icon can be used freely in both personal and commercial projects with no attribution required, but always appreciated. 
You may NOT sub-license, resell, rent, redistribute or otherwise transfer the icon without express written permission from iconmonstr.com -->


<!DOCTYPE svg PUBLIC "-//W3C//DTD SVG 1.1//EN" "http://www.w3.org/Graphics/SVG/1.1/DTD/svg11.dtd">

<svg version="1.1" xmlns="http://www.w3.org/2000/svg" xmlns:xlink="http://www.w3.org/1999/xlink" x="0px" y="0px"

	 width="512px" height="512px" viewBox="0 0 512 512" enable-background="new 0 0 512 512" xml:space="preserve">

<path id="edit-5-icon" d="M196.208,259.135l75.571,75.527l-99.992,22.633L196.208,259.135z M461.709,147.22L295.438,313.398

	l-77.871-77.828L383.84,69.391L461.709,147.22z M356.875,308.564v94.045H90.292V207.608h98.688l40.018-40H50.292v275.001h346.583

	V268.582L356.875,308.564z"/>

</svg>
